!!!OTL: "Der Schleifer" ES CHUMMT E FROEMDE SCHLIFER
!!!ARE: Europa, Mitteleuropa, Schweiz
!!!SCT: Z1334
!!!YEM: Copyright 1995, estate of Helmut Schaffrath.
**kern
*ICvox
*Ivox
*M2/4
*k[f#c#g#]
*A:
{16a
16b
=1
8cc#
16cc#
16b
8a
16a
16b
=2
8cc#
16cc#
16b
8a}
{8b
=3
8cc#
8dd
8ee
16dd
16cc#
=4
8b
8b
8b
8r}
=5
{8b
16b
16cc#
16b
16cc#
16b
16dd
=6
8b
8cc#
8b}
{16a
16b
=7
8cc#
8ee
8cc#
8a
=8
8b
16b
16cc#
8b}
{16a
16b
=9
8cc#
16ee
16cc#
8a
8b
=10
8cc#
16ee
16cc#
8a}
==
!!!AGN: Zech -, Schalks - Lied
!!!ONB: ESAC (Essen Associative Code) Database: ZUCCAL
!!!AMT: simple duple
!!!AIN: vox
!!!EED: Helmut Schaffrath
!!!EEV: 1.0
*-
